client/resources/iconsets/breeze/src/svg/16x16/icon_previewpanel_off.svg

<svg xmlns="http://www.w3.org/2000/svg" width="16" height="16" viewBox="0 0 16 16">
 <path style="fill:#6d6d70"
       d="M 2,1 C 1.446,1 1,1.446 1,2 l 0,12 c 0,0.554 0.446,1 1,1 l 1,0 c 0.554,0 1,-0.446 1,-1 L 4,2 C 4,1.446 3.554,1 3,1 L 2,1 Z M 7,1 C 6.446,1 6,1.446 6,2 6,2.554 6.446,3 7,3 l 6,0 C 13.554,3 14,2.554 14,2 14,1.446 13.554,1 13,1 L 7,1 Z M 7,5 C 6.446,5 6,5.446 6,6 6,6.554 6.446,7 7,7 l 6,0 C 13.554,7 14,6.554 14,6 14,5.446 13.554,5 13,5 L 7,5 Z m 0,4 c -0.554,0 -1,0.446 -1,1 0,0.554 0.446,1 1,1 l 6,0 c 0.554,0 1,-0.446 1,-1 C 14,9.446 13.554,9 13,9 L 7,9 Z m 0,4 c -0.554,0 -1,0.446 -1,1 0,0.554 0.446,1 1,1 l 6,0 c 0.554,0 1,-0.446 1,-1 0,-0.554 -0.446,-1 -1,-1 l -6,0 z"
       />
</svg>

<svg xmlns="http://www.w3.org/2000/svg" width="16" height="16"><path d="M2 1a1 1 0 0 0-1 1v12a1 1 0 0 0 1 1h1a1 1 0 0 0 1-1V2a1 1 0 0 0-1-1H2zm5 0a1 1 0 0 0-1 1 1 1 0 0 0 1 1h6a1 1 0 0 0 1-1 1 1 0 0 0-1-1H7zm0 4a1 1 0 1 0 0 2h6a1 1 0 1 0 0-2H7zm0 4a1 1 0 1 0 0 2h6a1 1 0 1 0 0-2H7zm0 4a1 1 0 1 0 0 2h6a1 1 0 1 0 0-2H7z" fill="#6d6d70"/></svg>
